X: 1
T: An Dro
T: Bron: boombaltunes.be
O: trad. Bretagne
Z: 2019 John Chambers <jc:trillian.mit.edu>
S: NEFFA 2019 French Jam handout p.15 #1
Q: 1/4=160
M: C
L: 1/8
K: Am
"^A"|:\
"Am"e2ef e2ed | c2B2 "F"A4 | "G"d2d2 BAG2 |\
[1 "(F)"ABcd "Em"efe2 :|2 "Em"ABcB "Am"A4 :|
"^B"|:\
"Am"e2g2 A4 | e2g2 "G"B4 |\
[1 "Dm"d2d2 "Em"BAG2 | "F"ABcd "G"efe2 :|\
[2 "F"d2d2 "G"BAG2 | "Em"ABcB "Am"A4 :|
